src/symbols/alphanum/1F522.svg

<svg id="emoji" viewBox="0 0 72 72" xmlns="http://www.w3.org/2000/svg">
  <g id="grid">
    <path fill="#b3b3b3" d="M68,4V68H4V4H68m4-4H0V72H72V0Z"/>
    <path fill="none" stroke="#00a5ff" stroke-miterlimit="10" stroke-width="0.1" d="M12.923,10.9583H59.0769A1.9231,1.9231,0,0,1,61,12.8814V59.0352a1.9231,1.9231,0,0,1-1.9231,1.9231H12.9231A1.9231,1.9231,0,0,1,11,59.0352V12.8813A1.923,1.923,0,0,1,12.923,10.9583Z"/>
    <rect x="16" y="4" rx="2.2537" width="40" height="64" fill="none" stroke="#00a5ff" stroke-miterlimit="10" stroke-width="0.1"/>
    <rect x="16" y="4" rx="2.2537" width="40" height="64" transform="translate(72) rotate(90)" fill="none" stroke="#00a5ff" stroke-miterlimit="10" stroke-width="0.1"/>
    <circle cx="36" cy="36" r="29" fill="none" stroke="#00a5ff" stroke-miterlimit="10" stroke-width="0.1"/>
  </g>
  <g id="color">
    <path fill="#d0cfce" stroke="none" stroke-linejoin="round" stroke-miterlimit="10" stroke-width="2" d="M59.0349,60H12.9651 C12.4343,60,12,59.5657,12,59.0349V12.9651C12,12.4343,12.4343,12,12.9651,12h46.0698C59.5657,12,60,12.4343,60,12.9651v46.0698 C60,59.5657,59.5657,60,59.0349,60z"/>
  </g>
  <g id="hair"/>
  <g id="skin"/>
  <g id="skin-shadow"/>
  <g id="line">
    <path fill="none" stroke="#000000" stroke-linejoin="round" stroke-miterlimit="10" stroke-width="2" d="M59.0349,60H12.9651 C12.4343,60,12,59.5657,12,59.0349V12.9651C12,12.4343,12.4343,12,12.9651,12h46.0698C59.5657,12,60,12.4343,60,12.9651v46.0698 C60,59.5657,59.5657,60,59.0349,60z"/>
    <path fill="none" stroke="#000000" stroke-linecap="round" stroke-linejoin="round" stroke-miterlimit="10" stroke-width="2" d="M39.4907,24.9226c0.2864-1.3997,1.5249-2.4527,3.0093-2.4527l0,0c0.8481,0,1.6161,0.3439,2.172,0.8997 c0.8647,0.8647,0.7849,2.3016-0.0264,3.2164l-5.2173,5.8839h6.1434"/>
    <path fill="none" stroke="#000000" stroke-linecap="round" stroke-linejoin="round" stroke-miterlimit="10" stroke-width="2" d="M27.7088,46.4738c0.263,1.1393,1.3999,1.9961,2.7626,1.9961l0,0c1.5574,0,2.8199-1.1193,2.8199-2.5s-1.2624-2.5-2.8199-2.5 c1.5574,0,2.8199-1.1193,2.8199-2.5s-1.2624-2.5-2.8199-2.5l0,0c-1.3627,0-2.4996,0.857-2.7626,1.9961"/>
    <polyline fill="none" stroke="#000000" stroke-linecap="round" stroke-linejoin="round" stroke-miterlimit="10" stroke-width="2" points="28.1158,24.5439 30.8842,22.4699 30.8842,32.4699"/>
    <polyline fill="none" stroke="#000000" stroke-linecap="round" stroke-linejoin="round" stroke-miterlimit="10" stroke-width="2" points="43.2914,38.4699 39.5754,46.8709 45.4246,46.8709"/>
    <line x1="44.4612" x2="44.4612" y1="43.7742" y2="48.4699" fill="none" stroke="#000000" stroke-linecap="round" stroke-linejoin="round" stroke-miterlimit="10" stroke-width="2"/>
  </g>
</svg>

<svg viewBox="0 0 72 72" xmlns="http://www.w3.org/2000/svg"><path fill="#b3b3b3" d="M68 4v64H4V4h64m4-4H0v72h72V0z"/><path fill="none" stroke="#00a5ff" stroke-miterlimit="10" stroke-width=".1" d="M12.923 10.958h46.154A1.923 1.923 0 0161 12.881v46.154a1.923 1.923 0 01-1.923 1.923H12.923A1.923 1.923 0 0111 59.035V12.881a1.923 1.923 0 011.923-1.923z"/><rect x="16" y="4" rx="2.254" width="40" height="64" fill="none" stroke="#00a5ff" stroke-miterlimit="10" stroke-width=".1"/><rect x="16" y="4" rx="2.254" width="40" height="64" transform="rotate(90 36 36)" fill="none" stroke="#00a5ff" stroke-miterlimit="10" stroke-width=".1"/><circle cx="36" cy="36" r="29" fill="none" stroke="#00a5ff" stroke-miterlimit="10" stroke-width=".1"/><g stroke-linecap="round" stroke-miterlimit="10" stroke-width="6" stroke="#fff" fill="none" stroke-linejoin="round"><path d="M59.035 60h-46.07a.968.968 0 01-.965-.965v-46.07c0-.53.434-.965.965-.965h46.07c.53 0 .965.434.965.965v46.07c0 .53-.434.965-.965.965z"/><path d="M39.49 24.923a3.073 3.073 0 013.01-2.453h0c.848 0 1.616.344 2.172.9.865.864.785 2.301-.026 3.216l-5.218 5.884h6.144M27.709 46.474c.263 1.14 1.4 1.996 2.762 1.996h0c1.558 0 2.82-1.12 2.82-2.5s-1.262-2.5-2.82-2.5c1.558 0 2.82-1.12 2.82-2.5s-1.262-2.5-2.82-2.5h0c-1.362 0-2.5.857-2.762 1.996m.407-15.922l2.768-2.074v10m12.407 6l-3.716 8.4h5.85m-.964-3.096v4.696"/></g><path fill="#d0cfce" d="M59.035 60h-46.07a.968.968 0 01-.965-.965v-46.07c0-.53.434-.965.965-.965h46.07c.53 0 .965.434.965.965v46.07c0 .53-.434.965-.965.965z"/><g fill="none" stroke="#000" stroke-linejoin="round" stroke-miterlimit="10" stroke-width="2"><path d="M59.035 60h-46.07a.968.968 0 01-.965-.965v-46.07c0-.53.434-.965.965-.965h46.07c.53 0 .965.434.965.965v46.07c0 .53-.434.965-.965.965z"/><path stroke-linecap="round" d="M39.49 24.923a3.073 3.073 0 013.01-2.453h0c.848 0 1.616.344 2.172.9.865.864.785 2.301-.026 3.216l-5.218 5.884h6.144M27.709 46.474c.263 1.14 1.4 1.996 2.762 1.996h0c1.558 0 2.82-1.12 2.82-2.5s-1.262-2.5-2.82-2.5c1.558 0 2.82-1.12 2.82-2.5s-1.262-2.5-2.82-2.5h0c-1.362 0-2.5.857-2.762 1.996m.407-15.922l2.768-2.074v10m12.407 6l-3.716 8.4h5.85m-.964-3.096v4.696"/></g></svg>
